images/cost-block.svg

<svg width="597" height="421" viewBox="0 0 597 421" fill="none" xmlns="http://www.w3.org/2000/svg">
<path d="M595.98 15.9754V405.192C595.98 413.281 589.423 419.834 581.329 419.834H15.3479C7.25364 419.834 0.696289 413.281 0.696289 405.192V15.9754C0.696289 7.88595 7.25364 1.28125 15.3479 1.28125H581.278C589.423 1.28125 595.98 7.83475 595.98 15.9754Z" fill="white"/>
<path d="M581.329 420.499H15.3478C6.89499 420.499 0.0302734 413.638 0.0302734 405.191V15.9746C0.0302734 7.52672 6.89499 0.666016 15.3478 0.666016H581.278C589.73 0.666016 596.595 7.52672 596.595 15.9746V405.139C596.595 413.587 589.73 420.499 581.329 420.499ZM15.3478 1.94599C7.6122 1.94599 1.31101 8.24351 1.31101 15.9746V405.139C1.31101 412.871 7.6122 419.168 15.3478 419.168H581.278C589.013 419.168 595.314 412.871 595.314 405.139V15.9746C595.314 8.24351 589.013 1.94599 581.278 1.94599H15.3478Z" fill="#2667FF"/>
<path d="M595.981 15.9764V39.0672H0.696533V15.9764C0.696533 7.88692 7.25388 1.28223 15.3481 1.28223H581.278C589.423 1.28223 595.981 7.83573 595.981 15.9764Z" fill="white"/>
<path d="M596.595 39.6802H0.0302734V15.9238C0.0302734 7.4759 6.89499 0.615234 15.3478 0.615234H581.278C589.73 0.615234 596.595 7.4759 596.595 15.9238V39.6802ZM1.31101 38.4002H595.314V15.9238C595.314 8.19269 589.013 1.89521 581.278 1.89521H15.3478C7.6122 1.89521 1.31101 8.19269 1.31101 15.9238V38.4002Z" fill="#2667FF"/>
<path d="M33.7393 26.9833C37.5023 26.9833 40.5528 23.9345 40.5528 20.1738C40.5528 16.413 37.5023 13.3643 33.7393 13.3643C29.9763 13.3643 26.9258 16.413 26.9258 20.1738C26.9258 23.9345 29.9763 26.9833 33.7393 26.9833Z" fill="#2856CC"/>
<path d="M59.8147 13.3643C56.0237 13.3643 53.0012 16.4362 53.0012 20.1738C53.0012 23.9625 56.075 26.9833 59.8147 26.9833C63.5545 26.9833 66.6282 23.9113 66.6282 20.1738C66.6282 16.385 63.5545 13.3643 59.8147 13.3643Z" fill="#2856CC"/>
<path d="M85.8394 26.9833C82.0484 26.9833 79.0259 23.9113 79.0259 20.1738C79.0259 16.385 82.0996 13.3643 85.8394 13.3643C89.6304 13.3643 92.6529 16.4362 92.6529 20.1738C92.6529 23.9625 89.5791 26.9833 85.8394 26.9833ZM85.8394 14.6442C82.7656 14.6442 80.3066 17.153 80.3066 20.1738C80.3066 23.2457 82.8168 25.7033 85.8394 25.7033C88.9131 25.7033 91.3722 23.1945 91.3722 20.1738C91.3722 17.1018 88.9131 14.6442 85.8394 14.6442Z" fill="#2667FF"/>
<path d="M253.923 27.7507H126.925C122.724 27.7507 119.343 24.3203 119.343 20.1732C119.343 16.026 122.776 12.5957 126.925 12.5957H253.872C258.072 12.5957 261.454 16.026 261.454 20.1732C261.454 24.3203 258.072 27.7507 253.923 27.7507ZM126.925 13.8757C123.442 13.8757 120.624 16.6916 120.624 20.1732C120.624 23.6547 123.442 26.4707 126.925 26.4707H253.872C257.355 26.4707 260.173 23.6547 260.173 20.1732C260.173 16.6916 257.355 13.8757 253.872 13.8757H126.925Z" fill="#2667FF"/>
<path d="M415.346 220.157C415.346 281.442 365.654 331.105 304.332 331.105C243.011 331.105 193.267 281.442 193.267 220.157C193.267 162.66 237.017 115.403 293.062 109.72L296.75 146.122C259.199 149.911 229.896 181.604 229.896 220.105C229.896 261.167 263.195 294.498 304.281 294.498C345.367 294.498 378.666 261.218 378.666 220.105C378.666 212.937 377.642 206.026 375.746 199.472L410.941 189.335C413.81 199.114 415.346 209.456 415.346 220.157Z" fill="#2667FF"/>
<path d="M304.332 309.757C353.845 309.757 393.984 269.642 393.984 220.158C393.984 170.674 353.845 130.56 304.332 130.56C254.819 130.56 214.681 170.674 214.681 220.158C214.681 269.642 254.819 309.757 304.332 309.757Z" fill="white"/>
<path opacity="0.5" d="M304.332 309.757C353.845 309.757 393.984 269.642 393.984 220.158C393.984 170.674 353.845 130.56 304.332 130.56C254.819 130.56 214.681 170.674 214.681 220.158C214.681 269.642 254.819 309.757 304.332 309.757Z" fill="#87BFFF"/>
<path d="M304.332 283.645C339.416 283.645 367.857 255.221 367.857 220.158C367.857 185.095 339.416 156.671 304.332 156.671C269.249 156.671 240.808 185.095 240.808 220.158C240.808 255.221 269.249 283.645 304.332 283.645Z" fill="white"/>
<path d="M311.556 251.389V261.015H299.312V251.799C290.603 251.287 282.201 248.932 276.976 245.706L283.584 230.756C289.322 234.135 296.955 236.337 303.666 236.337C309.506 236.337 311.607 235.108 311.607 233.009C311.607 225.38 277.949 231.524 277.949 208.843C277.949 199.012 285.07 190.769 299.363 188.773V179.301H311.607V188.619C318.062 189.233 324.312 190.872 329.281 193.688L323.082 208.536C317.088 205.515 311.402 204.03 306.125 204.03C300.131 204.03 298.185 205.771 298.185 207.87C298.185 215.191 331.843 209.099 331.843 231.524C331.843 240.842 325.029 249.034 311.556 251.389Z" fill="#2667FF"/>
<path d="M482.2 147.814L466.883 105.574C449.618 111.821 437.272 128.358 437.272 147.814C437.272 172.594 457.405 192.715 482.2 192.715C506.995 192.715 527.128 172.594 527.128 147.814C527.128 140.339 525.284 133.324 522.057 127.129L482.2 147.814Z" fill="#E6F4FF"/>
<path d="M528.102 111.154C520.622 96.7668 505.561 86.9365 488.245 86.9365C482.866 86.9365 477.743 87.8581 472.928 89.5989L488.245 131.838L528.102 111.154Z" fill="#2667FF"/>
<path d="M545.827 291.735H439.526V392.854H545.827V291.735Z" fill="#E6F4FF"/>
<path d="M515.704 318.617H456.176V322.867H515.704V318.617Z" fill="white"/>
<path d="M515.704 331.415H456.176V335.665H515.704V331.415Z" fill="white"/>
<path d="M140.04 98.457H47.6221V254.615H140.04V98.457Z" fill="#E6F4FF"/>
<path d="M122.315 121.088H61.7104V176.537H122.315V121.088Z" fill="white"/>
<path d="M62.1504 120.612L61.2854 121.556L121.901 177.007L122.766 176.063L62.1504 120.612Z" fill="#E6F4FF"/>
<path d="M121.856 120.652L61.2485 176.104L62.1135 177.047L122.721 121.596L121.856 120.652Z" fill="#E6F4FF"/>
</svg>

<svg xmlns="http://www.w3.org/2000/svg" width="597" height="421" fill="none"><path fill="#fff" d="M595.98 15.975v389.217c0 8.089-6.557 14.642-14.651 14.642H15.348c-8.094 0-14.652-6.553-14.652-14.642V15.975c0-8.089 6.558-14.694 14.652-14.694h565.93a14.666 14.666 0 0 1 14.702 14.694Z"/><path fill="#2667FF" d="M581.329 420.499H15.348c-8.453 0-15.318-6.861-15.318-15.308V15.975C.03 7.527 6.895.666 15.348.666h565.93c8.452 0 15.317 6.86 15.317 15.309v389.164c0 8.448-6.865 15.36-15.266 15.36ZM15.348 1.946C7.612 1.946 1.31 8.244 1.31 15.975v389.164c0 7.732 6.301 14.029 14.037 14.029h565.93c7.735 0 14.036-6.297 14.036-14.029V15.975c0-7.731-6.301-14.029-14.036-14.029H15.348Z"/><path fill="#fff" d="M595.981 15.976v23.091H.697v-23.09c0-8.09 6.557-14.695 14.651-14.695h565.93a14.667 14.667 0 0 1 14.703 14.694Z"/><path fill="#2667FF" d="M596.595 39.68H.03V15.924C.03 7.476 6.895.615 15.348.615h565.93c8.452 0 15.317 6.86 15.317 15.309V39.68ZM1.311 38.4h594.003V15.924c0-7.731-6.301-14.029-14.036-14.029H15.348C7.612 1.895 1.31 8.193 1.31 15.924V38.4Z"/><path fill="#2856CC" d="M33.74 26.983a6.812 6.812 0 0 0 6.813-6.81c0-3.76-3.05-6.809-6.814-6.809a6.811 6.811 0 0 0-6.813 6.81c0 3.76 3.05 6.81 6.813 6.81ZM59.815 13.364A6.808 6.808 0 0 0 53 20.174c0 3.788 3.074 6.81 6.814 6.81s6.813-3.073 6.813-6.81c0-3.789-3.074-6.81-6.813-6.81Z"/><path fill="#2667FF" d="M85.84 26.983a6.808 6.808 0 0 1-6.814-6.81c0-3.788 3.074-6.809 6.813-6.809a6.808 6.808 0 0 1 6.814 6.81c0 3.788-3.074 6.81-6.814 6.81Zm0-12.339c-3.074 0-5.533 2.509-5.533 5.53 0 3.072 2.51 5.53 5.532 5.53 3.074 0 5.533-2.51 5.533-5.53 0-3.072-2.459-5.53-5.533-5.53ZM253.923 27.75H126.925c-4.201 0-7.582-3.43-7.582-7.577s3.433-7.577 7.582-7.577h126.947c4.2 0 7.582 3.43 7.582 7.577s-3.382 7.578-7.531 7.578ZM126.925 13.877a6.295 6.295 0 0 0-6.301 6.297 6.295 6.295 0 0 0 6.301 6.298h126.947a6.295 6.295 0 0 0 6.301-6.298 6.295 6.295 0 0 0-6.301-6.297H126.925ZM415.346 220.157c0 61.285-49.692 110.948-111.014 110.948-61.321 0-111.065-49.663-111.065-110.948 0-57.497 43.75-104.754 99.795-110.437l3.688 36.402c-37.551 3.789-66.854 35.482-66.854 73.983 0 41.062 33.299 74.393 74.385 74.393 41.086 0 74.385-33.28 74.385-74.393a74.083 74.083 0 0 0-2.92-20.633l35.195-10.137a109.319 109.319 0 0 1 4.405 30.822Z"/><path fill="#fff" d="M304.332 309.757c49.513 0 89.652-40.115 89.652-89.599s-40.139-89.598-89.652-89.598-89.651 40.114-89.651 89.598 40.138 89.599 89.651 89.599Z"/><path fill="#87BFFF" d="M304.332 309.757c49.513 0 89.652-40.115 89.652-89.599s-40.139-89.598-89.652-89.598-89.651 40.114-89.651 89.598 40.138 89.599 89.651 89.599Z" opacity=".5"/><path fill="#fff" d="M304.332 283.645c35.084 0 63.525-28.424 63.525-63.487s-28.441-63.487-63.525-63.487c-35.083 0-63.524 28.424-63.524 63.487s28.441 63.487 63.524 63.487Z"/><path fill="#2667FF" d="M311.556 251.389v9.626h-12.244v-9.216c-8.709-.512-17.111-2.867-22.336-6.093l6.608-14.95c5.738 3.379 13.371 5.581 20.082 5.581 5.84 0 7.941-1.229 7.941-3.328 0-7.629-33.658-1.485-33.658-24.166 0-9.831 7.121-18.074 21.414-20.07v-9.472h12.244v9.318c6.455.614 12.705 2.253 17.674 5.069l-6.199 14.848c-5.994-3.021-11.68-4.506-16.957-4.506-5.994 0-7.94 1.741-7.94 3.84 0 7.321 33.658 1.229 33.658 23.654 0 9.318-6.814 17.51-20.287 19.865Z"/><path fill="#E6F4FF" d="m482.2 147.814-15.317-42.24c-17.265 6.247-29.611 22.784-29.611 42.24 0 24.78 20.133 44.901 44.928 44.901 24.795 0 44.928-20.121 44.928-44.901 0-7.475-1.844-14.49-5.071-20.685L482.2 147.814Z"/><path fill="#2667FF" d="M528.102 111.154c-7.48-14.387-22.541-24.218-39.857-24.218-5.379 0-10.502.922-15.317 2.663l15.317 42.239 39.857-20.684Z"/><path fill="#E6F4FF" d="M545.827 291.735H439.526v101.119h106.301V291.735Z"/><path fill="#fff" d="M515.704 318.617h-59.528v4.25h59.528v-4.25ZM515.704 331.415h-59.528v4.25h59.528v-4.25Z"/><path fill="#E6F4FF" d="M140.04 98.457H47.622v156.158h92.418V98.457Z"/><path fill="#fff" d="M122.315 121.088H61.71v55.449h60.605v-55.449Z"/><path fill="#E6F4FF" d="m62.15 120.612-.865.944 60.616 55.451.865-.944-60.616-55.451Z"/><path fill="#E6F4FF" d="m121.856 120.652-60.607 55.452.864.943 60.608-55.451-.865-.944Z"/></svg>
